website/media/images/svg/telegram.svg

<svg width="36" height="36" viewBox="0 0 36 36" fill="none" xmlns="http://www.w3.org/2000/svg">
<path d="M36 18C36 8.05888 27.9411 0 18 0C8.05888 0 0 8.05888 0 18C0 27.9411 8.05888 36 18 36C27.9411 36 36 27.9411 36 18Z" fill="url(#paint0_radial)"/>
<path d="M14.8474 21.651L14.5166 26.3043C14.9899 26.3043 15.1949 26.101 15.4407 25.8568L17.6599 23.736L22.2582 27.1035C23.1016 27.5735 23.6957 27.326 23.9232 26.3277L26.9416 12.1843L26.9424 12.1835C27.2099 10.9368 26.4916 10.4493 25.6699 10.7552L7.92824 17.5477C6.7174 18.0177 6.73574 18.6927 7.7224 18.9985L12.2582 20.4093L22.7941 13.8168C23.2899 13.4885 23.7407 13.6702 23.3699 13.9985L14.8474 21.651Z" fill="white"/>
<defs>
<radialGradient id="paint0_radial" cx="0" cy="0" r="1" gradientUnits="userSpaceOnUse" gradientTransform="translate(18 18) scale(18)">
<stop stop-color="#29B6F6"/>
<stop offset="1" stop-color="#0277BD"/>
</radialGradient>
</defs>
</svg>

<svg width="36" height="36" viewBox="0 0 36 36" fill="none" xmlns="http://www.w3.org/2000/svg"><path d="M36 18c0-9.941-8.059-18-18-18S0 8.059 0 18s8.059 18 18 18 18-8.059 18-18z" fill="url(#paint0_radial)"/><path d="M14.847 21.651l-.33 4.653c.473 0 .678-.203.924-.447l2.219-2.121 4.598 3.367c.844.47 1.438.223 1.665-.775l3.019-14.144c.268-1.247-.45-1.735-1.272-1.429L7.928 17.548c-1.21.47-1.192 1.145-.206 1.45l4.536 1.411 10.536-6.592c.496-.329.947-.147.576.181l-8.523 7.653z" fill="#fff"/><defs><radialGradient id="paint0_radial" cx="0" cy="0" r="1" gradientUnits="userSpaceOnUse" gradientTransform="matrix(18 0 0 18 18 18)"><stop stop-color="#29B6F6"/><stop offset="1" stop-color="#0277BD"/></radialGradient></defs></svg>
